X:1
T:Mattie Groves
M:2/4
L:1/4
K:F
 A,/2| D D| D3/2 D/2|E/2-D/2 C| D D/2D/2| D D| F G| A2-| A/2 z/2| A|\
 c c| A3/2 A/2| G E/2D/2| C3/2 C/2| D F| E C| D2-| D z/2||
